X:1
T:[ID 11-30e]
T:[ID 11-30e]
T:Bezeichnung standardisiert: Eccosaise Nr 21 Cosaise
T:Urheber unbekannt Datum in der hier transkribierten schriftlichen Quelle: vermutlich um 1800
C:Urheber unbekannt
C:Datum in der hier transkribierten schriftlichen Quelle: vermutlich um 1800
L:1/8
M:2/4
K:C
V:1 treble 
V:1
 fG dG | fG dG | ecgc | c'cgc | fG dG | fG dG | ecdB | cC (3CDC z :| %8

